X:132
T:Sl\"angpolska fr{\aa}n S\"odermanland
R:sl\"angpolska
H:efter Axel Axelsson, \"Osttorp
A:S\"ormland
Z:id:hn-sp-132
M:3/4
L:1/16
K:A
|: ABcd e3a g2a2 | fgfe fgaf f2e2 | cAce agae dcBA | cBAG A2E2 C2A,2 |
ABcd e3a g2a2 | fgfe fgaf f2e2 | cAce agae dcBA | cBAG G2A2 A4 :|
|: AEAc AEAc d2B2 | BGBd BGBd d2c2 | AEAc AEAc d2B2 | BGBd BGBd d2c2 |
ABcd e3a g2a2 | fgfe fgaf f2e2 | cAce agae dcBA | cBAG G2A2 A4 :|
<end>
<start>
